v8/libs/icons/svgs/wand.svg

<svg xmlns="http://www.w3.org/2000/svg" viewBox="0 0 24 24">

  <path d="M17.71,8.63l-.36-.36h0s-1.79-1.79-1.79-1.79h0s-.19-.19-.19-.19c-.37-.39-1.02-.39-1.41,0l-.08.08h0s-2.78,2.78-2.78,2.78h0S2.29,17.96,2.29,17.96c-.39.39-.39,1.04,0,1.41l2.34,2.34c.37.39,1.02.39,1.41,0l11.67-11.67c.39-.39.39-1.04,0-1.41ZM14.67,8.41l.92.92-1.85,1.85-.92-.92,1.85-1.85ZM21.6,3.5l1.4,2.5-2.5-1.4-2.5,1.4,1.4-2.5-1.4-2.5,2.5,1.4,2.5-1.4-1.4,2.5ZM23,13l-1.4,2.5,1.4,2.5-2.5-1.4-2.5,1.4,1.4-2.5-1.4-2.5,2.5,1.4,2.5-1.4ZM6,6l1.4-2.5-1.4-2.5,2.5,1.4,2.5-1.4-1.4,2.5,1.4,2.5-2.5-1.4-2.5,1.4Z"/>
</svg>

<svg xmlns="http://www.w3.org/2000/svg" width="24" height="24">
    <path d="M8.5 4.6L6 6l1.4-2.5L6 1l2.5 1.4L11 1 9.6 3.5 11 6 8.5 4.6zm12 9.8L23 13l-1.4 2.5L23 18l-2.5-1.4L18 18l1.4-2.5L18 13l2.5 1.4zM23 1l-1.4 2.5L23 6l-2.5-1.4L18 6l1.4-2.5L18 1l2.5 1.4L23 1zm-8.66 10.78l2.44-2.44-2.12-2.12-2.44 2.44 2.12 2.12zm1.03-5.49l2.34 2.34c.39.37.39 1.02 0 1.41L6.04 21.71c-.39.39-1.04.39-1.41 0l-2.34-2.34c-.39-.37-.39-1.02 0-1.41L13.96 6.29c.39-.39 1.04-.39 1.41 0z"/>
</svg>
